X:72
T:72 Morgan Ratler
C:Aylmore MS
I:abc2nwc
M:6/8
L:1/8
K:C
c|:GFE DEF|EDE C2c|GFE DEF|A2B ABc|
GFE DEF|EDE C2G|cde dcB|A2G ABc:|
c2d ecA|B2c dBG|c2d ecA|f2d efg|
c2d ecA|B2c dBG|cde dBG|A2G ABc:|
C2c cBc|D2d dcd|C2c cBc|A2G ABc|
C2c cBc|D2d def|gfe dcB|A2G ABc:|


